X:1
T:The Seven Joys of Mary (English)
M:2/4
L:1/8
K:C
 G| GB Bd| cA AA| AB cd| c- B2 d| dB ge|d-B G3/2 G/2| A3/2 B/2 cB|\
 G3||
